SharedPackages/Infrastructure/DesignResourcesKitIcons/Sources/DesignResourcesKitIcons/DesignSystemImages.xcassets/Color/24px/Address-Bar-Bottom-Color-24.imageset/Address-Bar-Bottom-Color-24.svg

<svg width="24" height="24" viewBox="0 0 24 24" fill="none" xmlns="http://www.w3.org/2000/svg">
<path d="M5.75 4.20005C5.75 3.46367 6.34695 2.875 7.08333 2.875C10.3611 2.875 13.6389 2.875 16.9167 2.875C17.653 2.875 18.25 3.47195 18.25 4.20833V19.7917C18.25 20.528 17.653 21.125 16.9167 21.125H7.08333C6.34695 21.125 5.75 20.5364 5.75 19.8C5.75 16.3839 5.75 7.55932 5.75 4.20005Z" fill="#EEEEEE"/>
<path d="M15.375 17.75C15.7202 17.75 16 18.0298 16 18.375C16 18.7202 15.7202 19 15.375 19L8.625 19C8.27982 19 8 18.7202 8 18.375C8 18.0298 8.27982 17.75 8.625 17.75L15.375 17.75Z" fill="#888888"/>
<path d="M16.1875 2C17.7408 2 19 3.2592 19 4.8125V19.1875C19 20.7408 17.7408 22 16.1875 22H7.8125C6.2592 22 5 20.7408 5 19.1875V4.8125C5 3.2592 6.2592 2 7.8125 2H16.1875ZM7.8125 3.25C6.94956 3.25 6.25 3.94956 6.25 4.8125V19.1875C6.25 20.0504 6.94956 20.75 7.8125 20.75H16.1875C17.0504 20.75 17.75 20.0504 17.75 19.1875V4.8125C17.75 3.94956 17.0504 3.25 16.1875 3.25H7.8125Z" fill="#686868"/>
<path d="M12 6C12.3452 6 12.625 6.27982 12.625 6.625V12.1719L13.9452 10.9213L13.9691 10.8998C14.2204 10.6848 14.5988 10.7024 14.8287 10.9452C15.0587 11.1879 15.0559 11.5668 14.8276 11.806L14.8048 11.8287L12.8597 13.6715C12.3776 14.1283 11.6224 14.1283 11.1403 13.6715L9.19519 11.8287L9.17237 11.806C8.94415 11.5668 8.94131 11.1879 9.17127 10.9452C9.40124 10.7024 9.77964 10.6848 10.0309 10.8998L10.0548 10.9213L11.375 12.1719V6.625C11.375 6.27982 11.6548 6 12 6Z" fill="#1074CC"/>
</svg>

<svg fill="none" viewBox="0 0 24 24" xmlns="http://www.w3.org/2000/svg">
  <path fill="#DDD" d="M5.75 4.2c0-.736.597-1.325 1.333-1.325h9.834c.736 0 1.333.597 1.333 1.333v15.584c0 .736-.597 1.333-1.333 1.333H7.083A1.326 1.326 0 0 1 5.75 19.8V4.2Z"/>
  <path fill="#fff" d="M5.75 16h12.5v3.792c0 .736-.597 1.333-1.333 1.333H7.083a1.333 1.333 0 0 1-1.333-1.333V16Z"/>
  <path fill="#888" d="M15.375 17.75a.625.625 0 1 1 0 1.25h-6.75a.625.625 0 1 1 0-1.25h6.75Z"/>
  <path fill="url(#Address-Bar-Bottom-Color-24_svg__a)" d="M16.188 2A2.813 2.813 0 0 1 19 4.813v14.375A2.813 2.813 0 0 1 16.187 22H7.813A2.813 2.813 0 0 1 5 19.187V4.813A2.813 2.813 0 0 1 7.813 2h8.375ZM7.813 3.25c-.863 0-1.563.7-1.563 1.563v14.375c0 .862.7 1.562 1.563 1.562h8.375c.862 0 1.562-.7 1.562-1.563V4.813c0-.862-.7-1.562-1.563-1.562H7.813Z"/>
  <path fill="#3969EF" d="M12 6c.345 0 .625.28.625.625v5.547l1.32-1.25.024-.022a.625.625 0 0 1 .859.906l-.023.023-1.945 1.842a1.25 1.25 0 0 1-1.72 0L9.195 11.83l-.023-.023a.625.625 0 0 1 .859-.906l.024.021 1.32 1.25V6.626c0-.345.28-.625.625-.625Z"/>
  <defs>
    <linearGradient id="Address-Bar-Bottom-Color-24_svg__a" x1="12" x2="12" y1="2" y2="22" gradientUnits="userSpaceOnUse">
      <stop stop-color="#888"/>
      <stop offset="1" stop-color="#333"/>
    </linearGradient>
  </defs>
</svg>
